source/svgs/bowtie/uEA97-new-team-project.svg

<svg xmlns="http://www.w3.org/2000/svg" viewBox="0 0 448 448" enable-background="new 0 0 448 448"><path d="M448 64v32h-64v64h-32v-64h-64v-32h64v-64h32v64h64zm-64 320h-352v-288h105.375l32 32h86.625v-32h-73.375l-32-32h-150.625v352h416v-224h-32v192zm-261.125-174.797l-24.656 26.688 106.875 98.641 106.844-98.641-24.625-26.688-82.219 75.891-82.219-75.891z"/></svg>

<svg xmlns="http://www.w3.org/2000/svg" viewBox="0 0 448 448"><path d="M448 64v32h-64v64h-32V96h-64V64h64V0h32v64h64zm-64 320H32V96h105.375l32 32H256V96h-73.375l-32-32H0v352h416V192h-32v192zM122.875 209.203l-24.656 26.688 106.875 98.641 106.844-98.641-24.625-26.688-82.219 75.891-82.219-75.891z"/></svg>
